Numix-Light/scalable/status/network-wireless-encrypted-symbolic.svg

<svg xmlns="http://www.w3.org/2000/svg" viewBox="0 0 16 16" style="enable-background:new">
 <g transform="matrix(0.4375,0,0,0.4,-2.5,-403.34488)" style="fill:#353535;fill-opacity:1">
  <path d="m 8 0 c 0 0 -5 0 -5 3.6 l 0 2.4 c -1.108 0 -2 0.892 -2 2 l 0 6 c 0 1.108 0.892 2 2 2 l 10 0 c 1.108 0 2 -0.892 2 -2 l 0 -6 c 0 -1.108 -0.892 -2 -2 -2 l 0 -2.4 c 0 -3.6 -5 -3.6 -5 -3.6 m 0 2 c 0 0 3 0 3 2.4 l 0 1.6 -6 0 0 -1.6 c 0.075 -2.4 3 -2.4 3 -2.4" transform="matrix(2.2857143,0,0,2.5,5.7142857,1008.3622)" style="color:#000"/>
 </g>
</svg>

<?xml version="1.0" encoding="UTF-8" standalone="no"?>
<svg
   xmlns:dc="http://purl.org/dc/elements/1.1/"
   xmlns:cc="http://creativecommons.org/ns#"
   xmlns:rdf="http://www.w3.org/1999/02/22-rdf-syntax-ns#"
   xmlns:svg="http://www.w3.org/2000/svg"
   xmlns="http://www.w3.org/2000/svg"
   xmlns:sodipodi="http://sodipodi.sourceforge.net/DTD/sodipodi-0.dtd"
   xmlns:inkscape="http://www.inkscape.org/namespaces/inkscape"
   viewBox="0 0 16 16"
   style="enable-background:new"
   id="svg2"
   version="1.1"
   inkscape:version="0.91 r13725"
   sodipodi:docname="network-wireless-encrypted-symbolic.svg">
  <metadata
     id="metadata12">
    <rdf:RDF>
      <cc:Work
         rdf:about="">
        <dc:format>image/svg+xml</dc:format>
        <dc:type
           rdf:resource="http://purl.org/dc/dcmitype/StillImage" />
      </cc:Work>
    </rdf:RDF>
  </metadata>
  <defs
     id="defs10" />
  <sodipodi:namedview
     pagecolor="#ffffff"
     bordercolor="#666666"
     borderopacity="1"
     objecttolerance="10"
     gridtolerance="10"
     guidetolerance="10"
     inkscape:pageopacity="0"
     inkscape:pageshadow="2"
     inkscape:window-width="1366"
     inkscape:window-height="704"
     id="namedview8"
     showgrid="true"
     inkscape:zoom="19.106512"
     inkscape:cx="1.8014528"
     inkscape:cy="8"
     inkscape:window-x="0"
     inkscape:window-y="27"
     inkscape:window-maximized="1"
     inkscape:current-layer="svg2">
    <inkscape:grid
       type="xygrid"
       id="grid4134" />
  </sodipodi:namedview>
  <g
     style="fill:#353535;fill-opacity:1;enable-background:new"
     transform="matrix(0.4375,0,0,0.4,-2.5,-403.34488)"
     id="g4-8">
    <path
       inkscape:connector-curvature="0"
       style="color:#000000;line-height:normal;fill:#353535;fill-opacity:1"
       d="M 8,0 C 8,0 3,-3.9065e-4 3,3.5996094 L 3,6 C 1.892,6 1,6.892 1,8 l 0,6 c 0,1.108 0.892,2 2,2 l 10,0 c 1.108,0 2,-0.892 2,-2 L 15,8 C 15,6.892 14.108,6 13,6 L 13,3.5996094 C 13,-3.9065e-4 8,0 8,0 Z m 0,2 c 0,0 3,3.906e-4 3,2.4003906 L 11,6 5,6 5,4.4003906 C 5.0749634,2.0003906 8,2 8,2 Z"
       transform="matrix(2.2857143,0,0,2.5,5.7142857,1008.3622)"
       id="path6-3" />
  </g>
</svg>
